assets/features/channel/other/stc.svg

<svg width="80" height="80" viewBox="0 0 80 80" fill="none" xmlns="http://www.w3.org/2000/svg">
<g clip-path="url(#clip0_2497_22898)">
<rect width="80" height="40" fill="#4F008C"/>
<rect y="40" width="80" height="40" fill="#00C48C"/>
<path d="M22.3073 35.4861C24.3727 35.5611 26.3871 34.837 27.9307 33.465C28.4313 32.9734 28.8269 32.3857 29.0937 31.7372C29.3605 31.0888 29.4928 30.3931 29.4827 29.6921C29.4889 29.0385 29.3649 28.3902 29.1177 27.7849C28.8706 27.1796 28.5053 26.6293 28.0432 26.1663C26.9494 25.1379 25.5691 24.4645 24.0844 24.2349L21.3064 23.696C20.1817 23.4714 19.5069 22.8987 19.5069 22.1128C19.5069 21.0684 20.5191 20.3498 22.1386 20.3498C23.0426 20.3148 23.9238 20.6376 24.5904 21.2481C24.9647 21.6554 25.2009 22.1701 25.2653 22.7191L29.269 21.8208C29.1414 20.6819 28.6157 19.6243 27.7845 18.834C26.2574 17.4252 24.2395 16.6678 22.1612 16.723C20.2243 16.6621 18.3347 17.3271 16.864 18.5869C16.3277 19.0818 15.9007 19.683 15.6102 20.3519C15.3197 21.0209 15.1722 21.743 15.177 22.4721C15.157 23.0812 15.2613 23.6879 15.4837 24.2555C15.706 24.823 16.0417 25.3395 16.4703 25.7733C17.5246 26.7484 18.8286 27.413 20.238 27.6934L22.9709 28.3447C24.343 28.6591 24.9503 29.1644 24.9503 30.0627C24.9503 31.1855 23.9494 31.8256 22.2961 31.8256C21.7862 31.8504 21.2766 31.7705 20.7988 31.5909C20.321 31.4113 19.8851 31.1358 19.5182 30.7813C19.0798 30.3405 18.8229 29.7514 18.7984 29.1307L14.6934 30.029C14.819 31.2346 15.369 32.3567 16.2454 33.1955C17.0526 33.9544 18.0039 34.544 19.0431 34.9297C20.0824 35.3154 21.1885 35.4893 22.2961 35.4412L22.3073 35.4861ZM52.6622 35.4412C53.7866 35.4724 54.9061 35.2811 55.9562 34.8783C57.0063 34.4755 57.9661 33.8693 58.7804 33.0944C59.8219 32.1059 60.5725 30.8516 60.951 29.4676L56.7335 28.064C56.5365 28.7796 56.1477 29.428 55.6088 29.9392C54.8163 30.6843 53.7617 31.0877 52.6734 31.062C52.0802 31.0684 51.4917 30.9576 50.9416 30.736C50.3915 30.5144 49.8907 30.1864 49.4681 29.7707C48.5822 28.7572 48.1193 27.443 48.1748 26.099C48.1137 24.7379 48.5903 23.4073 49.5019 22.3935C50.3526 21.5747 51.4918 21.1229 52.6734 21.1359C53.1993 21.1194 53.723 21.2105 54.2124 21.4036C54.7017 21.5967 55.1463 21.8877 55.5188 22.2587C56.0448 22.7933 56.431 23.4489 56.6435 24.1676L60.9285 22.7304C60.5702 21.3927 59.8774 20.168 58.9153 19.1708C58.0748 18.374 57.0844 17.7514 56.0015 17.3389C54.9185 16.9265 53.7644 16.7324 52.6059 16.7679C51.4013 16.7536 50.2058 16.9774 49.0882 17.4264C47.9706 17.8755 46.9531 18.5408 46.0941 19.3842C44.3831 21.2156 43.4372 23.6303 43.4498 26.1347C43.4623 28.6392 44.4324 31.0444 46.1615 32.8586C47.9042 34.5515 50.2421 35.4948 52.6734 35.4861L52.6622 35.4412ZM38.1314 35.4861C39.481 35.541 40.8105 35.146 41.9104 34.3633V30.5231C41.2027 31.0071 40.3612 31.2584 39.5035 31.2417C39.1803 31.3012 38.8473 31.2807 38.5338 31.1822C38.2203 31.0835 37.9357 30.9098 37.7049 30.6761C37.4742 30.4423 37.3042 30.1558 37.2099 29.8413C37.1158 29.527 37.1001 29.1943 37.1642 28.8724V12.3999H32.4294V17.2619H41.9329V21.8545H32.4294V30.0178C32.3646 31.4576 32.8696 32.8652 33.8352 33.9366C34.4154 34.4691 35.0963 34.8805 35.8379 35.1465C36.5796 35.4126 37.367 35.5281 38.1539 35.4861" fill="white"/>
<path d="M17.7424 67.7567V47.1121H21.2146V48.7449C21.7649 48.0732 22.4626 47.5389 23.2529 47.184C24.0432 46.829 24.9045 46.6631 25.7693 46.6992C29.7642 46.6992 32.6389 49.9085 32.6389 54.5066C32.6389 59.1047 29.8575 62.4079 25.7693 62.4079C24.9015 62.4395 24.0382 62.2678 23.2476 61.9063C22.4572 61.5446 21.7611 61.0032 21.2146 60.3246V67.8318L17.7424 67.7567ZM21.2146 52.7424V56.496C21.5409 57.2819 22.0903 57.9538 22.7941 58.4278C23.4979 58.9017 24.3249 59.1567 25.1721 59.161C27.4868 59.161 29.0175 57.4156 29.0175 54.6004C29.0175 51.7853 27.4868 50.0774 25.1721 50.0774C24.3237 50.0651 23.4916 50.3113 22.7852 50.7836C22.0787 51.256 21.5312 51.9324 21.2146 52.7237" fill="white"/>
<path d="M34.9955 57.0468C34.9419 55.9213 35.367 54.8215 36.1787 53.9864C36.9903 53.1512 38.1229 52.6482 39.3304 52.5864L45.5568 51.8522V51.118C45.5849 50.9432 45.5698 50.7647 45.5124 50.5962C45.4548 50.4277 45.3568 50.2737 45.2254 50.1461C45.0942 50.0185 44.9332 49.9206 44.755 49.86C44.5767 49.7993 44.3859 49.7776 44.1972 49.7964H36.3157V46.6943H44.1972C47.3498 46.6943 49.1035 48.1261 49.1035 50.6958V61.1768H45.5568V59.3412C44.9598 60.0736 44.1782 60.6577 43.2812 61.0419C42.3842 61.4261 41.3996 61.5984 40.4141 61.5439C39.7298 61.6108 39.0379 61.5428 38.3836 61.3445C37.7293 61.1461 37.127 60.8218 36.616 60.3925C36.105 59.9632 35.6966 59.4386 35.4175 58.8527C35.1383 58.2668 34.9945 57.6328 34.9955 56.9917V57.0468ZM41.3204 58.8273C42.2018 58.8449 43.0698 58.6258 43.8212 58.1962C44.5724 57.7665 45.1749 57.1445 45.5568 56.4043V54.5689L40.8081 55.1929C39.488 55.3581 38.8378 56.0005 38.8378 57.0285C38.8378 58.0563 39.7639 58.8639 41.3993 58.8639" fill="white"/>
<path d="M52.0537 64.5561H54.378C54.7382 64.5964 55.0986 64.4818 55.3869 64.2352C55.6753 63.9887 55.8705 63.6284 55.9333 63.2267L56.3606 61.8972L51.4556 46.6943H54.7711L57.8128 57.2727L60.7354 46.6943H64L58.6167 64.1516C57.8822 66.56 56.9074 67.8318 54.549 67.8318H52.0537V64.5561Z" fill="white"/>
</g>
<defs>
<clipPath id="clip0_2497_22898">
<rect width="80" height="80" rx="8" fill="white"/>
</clipPath>
</defs>
</svg>

<svg xmlns="http://www.w3.org/2000/svg" width="80" height="80" fill="none" viewBox="0 0 80 80"><g clip-path="url(#a)"><path fill="#4f008c" d="M0 0h80v40H0z"/><path fill="#00c48c" d="M0 40h80v40H0z"/><path fill="#fff" d="M22.307 35.486a8.03 8.03 0 0 0 5.624-2.021 5.2 5.2 0 0 0 1.552-3.773 4.92 4.92 0 0 0-1.44-3.526 7.44 7.44 0 0 0-3.959-1.931l-2.778-.539c-1.124-.225-1.8-.797-1.8-1.583 0-1.045 1.013-1.763 2.633-1.763a3.43 3.43 0 0 1 2.451.898c.375.407.61.922.675 1.471l4.004-.898a4.87 4.87 0 0 0-1.484-2.987 7.98 7.98 0 0 0-5.624-2.111 7.77 7.77 0 0 0-5.297 1.864 5.25 5.25 0 0 0-1.687 3.885 4.5 4.5 0 0 0 1.293 3.301 7.8 7.8 0 0 0 3.768 1.92l2.733.652c1.372.314 1.98.82 1.98 1.718 0 1.123-1.002 1.763-2.655 1.763a3.74 3.74 0 0 1-2.778-1.045 2.48 2.48 0 0 1-.72-1.65l-4.105.898a5.12 5.12 0 0 0 1.552 3.167 8.3 8.3 0 0 0 6.051 2.245zm30.355-.045a8.54 8.54 0 0 0 6.118-2.347 7.86 7.86 0 0 0 2.171-3.626l-4.218-1.404a4.1 4.1 0 0 1-1.124 1.875 4.14 4.14 0 0 1-2.936 1.123 4.5 4.5 0 0 1-3.205-1.291 5.25 5.25 0 0 1-1.293-3.672 5.2 5.2 0 0 1 1.327-3.706 4.5 4.5 0 0 1 3.171-1.257 3.86 3.86 0 0 1 2.846 1.123 4.6 4.6 0 0 1 1.125 1.909l4.285-1.438a8.2 8.2 0 0 0-2.014-3.56 8.78 8.78 0 0 0-6.31-2.402 9.15 9.15 0 0 0-6.51 2.616 9.816 9.816 0 0 0 .066 13.475 9.3 9.3 0 0 0 6.512 2.627zm-14.53.045a6.1 6.1 0 0 0 3.778-1.123v-3.84a4.12 4.12 0 0 1-2.406.719 2.017 2.017 0 0 1-2.294-1.4 2 2 0 0 1-.046-.97V12.4H32.43v4.862h9.504v4.593H32.43v8.163a5.5 5.5 0 0 0 1.406 3.919 5.92 5.92 0 0 0 4.319 1.55m-20.413 32.27V47.112h3.473v1.633a5.6 5.6 0 0 1 2.038-1.561 5.6 5.6 0 0 1 2.516-.485c3.995 0 6.87 3.21 6.87 7.808s-2.782 7.9-6.87 7.9a5.58 5.58 0 0 1-4.554-2.082v7.507zm3.473-15.015v3.754a4.33 4.33 0 0 0 1.58 1.932c.703.474 1.53.729 2.377.733 2.315 0 3.845-1.745 3.845-4.56 0-2.816-1.53-4.524-3.845-4.524a4.2 4.2 0 0 0-2.387.707 4.2 4.2 0 0 0-1.57 1.94m13.781 4.323c-.054-1.126.371-2.225 1.183-3.06.811-.836 1.944-1.339 3.151-1.4l6.227-.735v-.734a1.1 1.1 0 0 0-.045-.522 1.14 1.14 0 0 0-.287-.45 1.25 1.25 0 0 0-.47-.286 1.3 1.3 0 0 0-.558-.064h-7.881v-3.102h7.881c3.153 0 4.906 1.432 4.906 4.002v10.48h-3.546v-1.835a5.95 5.95 0 0 1-2.276 1.7 6.4 6.4 0 0 1-2.867.503 5.3 5.3 0 0 1-2.03-.2 5 5 0 0 1-1.768-.952 4.6 4.6 0 0 1-1.199-1.54 4.3 4.3 0 0 1-.422-1.86zm6.324 1.78a4.85 4.85 0 0 0 2.501-.63 4.4 4.4 0 0 0 1.736-1.793V54.57l-4.749.624c-1.32.165-1.97.808-1.97 1.836 0 1.027.926 1.835 2.561 1.835m10.655 5.691h2.324c.36.04.72-.074 1.009-.32.288-.247.483-.608.546-1.01l.428-1.329-4.905-15.203h3.315l3.042 10.579 2.922-10.579H64l-5.383 17.458c-.735 2.408-1.71 3.68-4.068 3.68h-2.495z"/></g><defs><clipPath id="a"><rect width="80" height="80" fill="#fff" rx="8"/></clipPath></defs></svg>
